X:1
T:Lost Indian
C:Oregon Old Time Fiddler
Z:hoedown
L:1/8
M:4/4
I:linebreak $
K:D
V:1 treble nm="Voice" snm="Voice"
V:1
 A,2 A,B, D2 D2 | A,B,DE F2 F2 | D2 DE FG A2 |"Bm" B6 (3ABc |$ d2 d2 d2 B2 | ABAG FEDF | %6
 A2 AB AFEF |1 AFEF D2 D2 :|2 AFEF D4 ||$ f a3 a2 b2 | a4 f4 | b2 a2 f2 e2 | (f[ef] f6) |$ %13
 b2 a2 f2 e2 | f2 f2 edBA | d2 cB AFEF | AFEF"D" D4 ||$"D" f2 a2 a2 b2 | d'8 | b2 a2 fe d2 | f8 |$ %21
 b2 a2 f2 e2 | f2 f2 edBA | d2 dB AFEF | AFEF"D" D4 || %25
